app/client/src/assets/icons/blueprintjs/20px/applications.svg

<svg xmlns="http://www.w3.org/2000/svg" xml:space="preserve" viewBox="0 0 20 20"><path fill-rule="evenodd" d="M15 5H1c-.55 0-1 .45-1 1v13c0 .55.45 1 1 1h14c.55 0 1-.45 1-1V6c0-.55-.45-1-1-1zm-1 13H2V8h12v10zM3.5 10h7c.28 0 .5-.22.5-.5s-.22-.5-.5-.5h-7c-.28 0-.5.22-.5.5s.22.5.5.5zm0 2h3c.28 0 .5-.22.5-.5s-.22-.5-.5-.5h-3c-.28 0-.5.22-.5.5s.22.5.5.5zm0 2h5c.28 0 .5-.22.5-.5s-.22-.5-.5-.5h-5c-.28 0-.5.22-.5.5s.22.5.5.5zM19 0H5c-.55 0-1 .45-1 1v3h2V3h12v10h-1v2h2c.55 0 1-.45 1-1V1c0-.55-.45-1-1-1z" clip-rule="evenodd"/></svg>

<?xml version="1.0" encoding="utf-8"?>
<!-- Generator: Adobe Illustrator 17.1.0, SVG Export Plug-In . SVG Version: 6.00 Build 0)  -->
<!DOCTYPE svg PUBLIC "-//W3C//DTD SVG 1.1//EN" "http://www.w3.org/Graphics/SVG/1.1/DTD/svg11.dtd">
<svg version="1.1" id="Layer_1" xmlns="http://www.w3.org/2000/svg" xmlns:xlink="http://www.w3.org/1999/xlink" x="0px" y="0px"
	 viewBox="0 0 20 20" enable-background="new 0 0 20 20" xml:space="preserve">
<g id="Rectangle_1_10_">
	<g>
		<path fill-rule="evenodd" clip-rule="evenodd" d="M15,5H1C0.45,5,0,5.45,0,6v13c0,0.55,0.45,1,1,1h14c0.55,0,1-0.45,1-1V6
			C16,5.45,15.55,5,15,5z M14,18H2V8h12V18z M3.5,10h7c0.28,0,0.5-0.22,0.5-0.5C11,9.22,10.78,9,10.5,9h-7C3.22,9,3,9.22,3,9.5
			C3,9.78,3.22,10,3.5,10z M3.5,12h3C6.78,12,7,11.78,7,11.5C7,11.22,6.78,11,6.5,11h-3C3.22,11,3,11.22,3,11.5
			C3,11.78,3.22,12,3.5,12z M3.5,14h5C8.78,14,9,13.78,9,13.5C9,13.22,8.78,13,8.5,13h-5C3.22,13,3,13.22,3,13.5
			C3,13.78,3.22,14,3.5,14z M19,0H5C4.45,0,4,0.45,4,1v3h2V3h12v10h-1v2h2c0.55,0,1-0.45,1-1V1C20,0.45,19.55,0,19,0z"/>
	</g>
</g>
</svg>
